X:15
T:Brennan's Bread
R:jig
C:Paul S. Cranford
O:Cape Breton Island
S:http://www.cranfordpub.com
D:currently unrecorded
B:currently unpublished in book form
Z:psc, (re-formatted,updated 9/17/04)
N:
H:                                                        copyrights Cranford Publications, SOCAN
L:1/8
M:6/8
Q:300
K:A
|:e|{f/g/}aAc ecA|dcB AEC|DEF EDC|B,Bc (d2 B)|
{f/g/}aAc ecA|dcB AEC|DEF EFG|A3 A2:|
|:B|AA,C DEF|EFG Ace|{f/g/}aed cBA|Bba gfg|
[1{f/g/}aA,C DEF|EFG Ace|{f/g/}aAc BAG|A3A2:|
[2{f/g/}aAc BAG|AA,C B,A,B,|A,Ac BAG|A3 A2|]
